X:228
T:Bound To Australia
M:6/8
L:1/8
Q:1/4=90
K:D
E|\
DED DFA|BGd d2c/B/|AGF (FE)D|E3 F2E|
DED DFA|BGd d2c   |AGF EDE|D3 zA2|
AFA dAA|BGB dcB   |AGF FED|E3 F2E|
DED DFA|GBd dcB/B/|AGF EDE|D3-D2 ||
